design/img/myquiz.svg

<svg width="122" height="32" viewBox="0 0 122 32" fill="none" xmlns="http://www.w3.org/2000/svg">
<path d="M71.3113 3.72899C69.0138 1.34119 65.8996 0 62.6527 0C59.4057 0 56.2915 1.34119 53.994 3.72899C52.8442 4.90129 51.9368 6.30594 51.3278 7.8566C50.7188 9.40725 50.421 11.0711 50.4526 12.746C50.421 14.4208 50.7188 16.0847 51.3278 17.6354C51.9368 19.1861 52.8442 20.5907 53.994 21.763C55.9625 23.846 58.5675 25.1493 61.3601 25.4484H61.5135C61.8638 25.4449 62.21 25.3693 62.5322 25.2259C62.8543 25.0825 63.146 24.8742 63.3904 24.6131C63.6389 24.3535 63.8349 24.0448 63.9667 23.705C64.0984 23.3653 64.1634 23.0015 64.1577 22.6352C64.1514 22.2946 64.0875 21.9577 63.9689 21.6402C63.838 21.2889 63.6368 20.9706 63.3786 20.7065C62.9695 20.3001 62.4503 20.0343 61.8913 19.9449C60.3126 19.7908 58.8388 19.0545 57.7361 17.8687C57.0729 17.2083 56.548 16.4123 56.1946 15.5308C55.8411 14.6492 55.6666 13.7011 55.6821 12.746C55.6668 11.7927 55.8414 10.8465 56.195 9.96699C56.5485 9.08744 57.0732 8.29362 57.7361 7.63554C58.3809 6.96213 59.1472 6.42781 59.9909 6.06323C60.8346 5.69864 61.7391 5.51097 62.6527 5.51097C63.5662 5.51097 64.4708 5.69864 65.3145 6.06323C66.1582 6.42781 66.9244 6.96213 67.5693 7.63554C68.1246 8.20675 68.5835 8.87124 68.9268 9.6011C69.2484 10.2897 69.4597 11.0283 69.5524 11.7878C69.568 12.317 69.73 12.8303 70.019 13.2661C70.3079 13.7019 70.7116 14.0417 71.1814 14.2447C71.6644 14.4554 72.1969 14.5106 72.7103 14.4033C73.2237 14.296 73.6944 14.0311 74.0618 13.6428C74.3236 13.3827 74.5286 13.0671 74.663 12.7174C74.7975 12.3677 74.8581 11.992 74.8409 11.6158C74.5991 8.63478 73.3483 5.83988 71.3113 3.72899Z" fill="white"/>
<path d="M0 10.6821H5.6898V13.6919C6.2162 12.6606 6.96834 11.7726 7.88544 11.0998C8.76045 10.5262 9.77922 10.2355 10.813 10.2644C11.844 10.2265 12.8615 10.518 13.7287 11.0998C14.5497 11.681 15.193 12.4954 15.582 13.4462C16.0827 12.4511 16.8414 11.622 17.772 11.0531C18.7026 10.4842 19.7679 10.1982 20.8468 10.2276C21.8755 10.2034 22.8847 10.522 23.7272 11.1366C24.5946 11.8082 25.2584 12.725 25.6395 13.7779C26.1194 15.0698 26.352 16.447 26.3242 17.8318V25.2027H20.3392V17.8318C20.3899 17.0402 20.2176 16.2504 19.8435 15.5591C19.6997 15.3173 19.4977 15.1186 19.2576 14.9829C19.0174 14.8472 18.7474 14.779 18.4741 14.7852C18.1539 14.788 17.8385 14.8669 17.5521 15.016C17.2657 15.165 17.0158 15.3802 16.8215 15.6451C16.3557 16.222 16.1081 16.9557 16.125 17.709V25.2027H10.2227V17.8318C10.2734 17.0402 10.1011 16.2504 9.72695 15.5591C9.57342 15.304 9.35608 15.0972 9.09821 14.9609C8.84035 14.8246 8.55169 14.7638 8.26319 14.7852C7.94448 14.7871 7.63051 14.8657 7.34586 15.0149C7.0612 15.1641 6.81358 15.3798 6.62235 15.6451C6.16369 16.2254 5.9207 16.9578 5.93769 17.709V25.2027H0V10.6821Z" fill="white"/>
<path d="M34.9296 31.6768L35.4136 27.3157C36.0891 27.4273 36.7719 27.4848 37.4558 27.4877C37.9286 27.521 38.4026 27.4447 38.8436 27.2641C39.2845 27.0835 39.6814 26.8032 40.0056 26.4435C40.7169 25.2733 41.0365 23.8912 40.9146 22.5124C40.4957 23.4345 39.8235 24.2067 38.9831 24.7315C38.1427 25.2562 37.1717 25.51 36.1927 25.4607C35.3656 25.499 34.5417 25.3305 33.79 24.9693C33.0383 24.6081 32.3807 24.0647 31.8723 23.3846C30.7592 21.7596 30.2135 19.7873 30.3259 17.795V10.4242H36.2281V18.7041C36.2042 19.3118 36.3977 19.9071 36.7712 20.3748C36.9524 20.595 37.1795 20.7692 37.4352 20.8842C37.6909 20.9991 37.9685 21.0518 38.2467 21.0382C38.5563 21.0407 38.8616 20.9635 39.1355 20.8135C39.4095 20.6634 39.6435 20.4452 39.8167 20.1783C40.2478 19.5215 40.4632 18.7371 40.4306 17.9425V10.4733H46.4037V21.5296C46.4037 24.9529 45.6679 27.5573 44.1962 29.3427C43.4035 30.2439 42.4269 30.9489 41.3382 31.406C40.2494 31.863 39.0761 32.0605 37.9044 31.9839C36.9051 31.9938 35.9076 31.8908 34.9296 31.6768Z" fill="white"/>
<path d="M99.3589 7.41452C99.0651 7.14958 98.8304 6.82099 98.6713 6.45176C98.5123 6.08252 98.4327 5.68157 98.4382 5.27698C98.4335 4.86943 98.5183 4.46615 98.686 4.09785C98.8537 3.72955 99.1001 3.40596 99.4062 3.15172C100.015 2.5925 100.801 2.28638 101.614 2.29179C102.449 2.26943 103.26 2.58166 103.88 3.164C104.18 3.42339 104.421 3.74827 104.587 4.11556C104.752 4.48286 104.838 4.88357 104.838 5.28926C104.838 5.69495 104.752 6.09567 104.587 6.46296C104.421 6.83026 104.18 7.15513 103.88 7.41452C103.26 7.97922 102.461 8.28549 101.637 8.27446C100.799 8.30722 99.9819 7.99874 99.3589 7.41452ZM99.9374 23.9129C98.995 22.6876 98.52 21.1435 98.6034 19.5764V10.4734H104.612V19.2939C104.6 19.4838 104.626 19.6742 104.687 19.8536C104.747 20.033 104.843 20.1978 104.966 20.3381C105.087 20.4618 105.231 20.5584 105.39 20.6218C105.548 20.6852 105.717 20.7141 105.887 20.7066C106.304 20.6984 106.711 20.5755 107.067 20.3504L107.421 24.4535C106.934 24.8208 106.38 25.08 105.792 25.2151C105.113 25.3948 104.415 25.4856 103.715 25.4854C103.011 25.5298 102.306 25.4094 101.652 25.1331C100.998 24.8567 100.412 24.4314 99.9374 23.8884V23.9129Z" fill="white"/>
<path d="M109.889 22.0947L114.87 14.2571H110.077V10.4734H121.882V13.6551L117.16 21.4682H122V25.2396H109.889V22.0947Z" fill="white"/>
<path d="M88.7821 10.4734V18.8147C88.8149 19.3705 88.6369 19.9174 88.2863 20.338C88.1245 20.516 87.9282 20.6561 87.7105 20.7493C87.4927 20.8425 87.2585 20.8865 87.0232 20.8786C86.779 20.8876 86.5356 20.8443 86.3082 20.7513C86.0807 20.6583 85.8741 20.5176 85.7011 20.338C85.5199 20.1339 85.3804 19.8937 85.2912 19.6318C85.2019 19.37 85.1646 19.092 85.1817 18.8147V14.687C85.079 14.8325 84.9686 14.9719 84.8512 15.1047L79.5627 20.6083C79.7196 21.2197 79.9707 21.8005 80.3064 22.3282C80.9825 23.3398 81.9196 24.1319 83.0096 24.6131C84.2633 25.1822 85.6203 25.463 86.9878 25.4362C88.3325 25.4641 89.6666 25.183 90.8951 24.6131C91.9668 24.116 92.883 23.3158 93.5393 22.3036C94.1791 21.2818 94.5081 20.0831 94.4837 18.8639V10.4734H88.7821Z" fill="white"/>
<path d="M82.4323 10.2357C82.1062 9.89028 81.6642 9.69629 81.2033 9.69629C80.7424 9.69629 80.3004 9.89028 79.9743 10.2357L70.7687 19.9982L67.36 16.3834C67.2037 16.1907 67.0115 16.0344 66.7955 15.9242C66.5795 15.8141 66.3443 15.7525 66.1048 15.7433C65.8653 15.7341 65.6266 15.7775 65.4036 15.8707C65.1806 15.964 64.9783 16.1052 64.8092 16.2853C64.6401 16.4655 64.508 16.6808 64.4211 16.9176C64.3342 17.1545 64.2944 17.4079 64.3042 17.6619C64.314 17.9158 64.3732 18.1649 64.4781 18.3935C64.583 18.622 64.7313 18.8251 64.9137 18.99L70.7803 25.2115L82.4323 12.8423C82.7579 12.4965 82.9409 12.0277 82.9409 11.539C82.9409 11.0502 82.7579 10.5815 82.4323 10.2357Z" fill="#65C15D"/>
</svg>

<svg xmlns="http://www.w3.org/2000/svg" width="122" height="32" fill="none"><path fill="#fff" d="M71.311 3.729C69.014 1.341 65.9 0 62.653 0s-6.361 1.341-8.659 3.729a12.326 12.326 0 0 0-2.666 4.128 12.727 12.727 0 0 0-.875 4.889 12.727 12.727 0 0 0 .875 4.89 12.326 12.326 0 0 0 2.666 4.127c1.968 2.083 4.574 3.386 7.366 3.685h.154c.35-.003.696-.079 1.018-.222.322-.143.614-.352.858-.613.249-.26.445-.568.577-.908a2.84 2.84 0 0 0 .19-1.07 3.004 3.004 0 0 0-.188-.995 2.667 2.667 0 0 0-.59-.934 2.721 2.721 0 0 0-1.488-.761 6.546 6.546 0 0 1-4.155-2.076 6.944 6.944 0 0 1-1.541-2.338 7.175 7.175 0 0 1-.513-2.785c-.015-.953.16-1.9.513-2.779a6.918 6.918 0 0 1 1.541-2.331 6.93 6.93 0 0 1 2.255-1.573 6.706 6.706 0 0 1 2.662-.552c.913 0 1.818.188 2.661.552.844.365 1.61.9 2.255 1.573A7.238 7.238 0 0 1 68.927 9.6c.321.689.533 1.427.625 2.187.016.529.178 1.042.467 1.478.289.436.693.776 1.162.979.483.21 1.016.266 1.53.158a2.592 2.592 0 0 0 1.35-.76c.263-.26.468-.576.602-.926.135-.35.195-.725.178-1.101-.242-2.981-1.493-5.776-3.53-7.887ZM0 10.682h5.69v3.01A7.36 7.36 0 0 1 7.885 11.1a5.076 5.076 0 0 1 2.928-.836 4.905 4.905 0 0 1 2.916.836 5.352 5.352 0 0 1 1.853 2.346 5.912 5.912 0 0 1 2.19-2.393 5.598 5.598 0 0 1 3.075-.825 4.696 4.696 0 0 1 2.88.909 5.856 5.856 0 0 1 1.913 2.64c.48 1.293.712 2.67.684 4.055v7.37H20.34v-7.37a4.215 4.215 0 0 0-.495-2.273 1.599 1.599 0 0 0-.586-.576 1.521 1.521 0 0 0-.784-.198c-.32.003-.636.082-.922.231a2.122 2.122 0 0 0-.73.63 3.175 3.175 0 0 0-.697 2.063v7.494h-5.902v-7.371a4.214 4.214 0 0 0-.496-2.273 1.619 1.619 0 0 0-.629-.598 1.541 1.541 0 0 0-.835-.176 2 2 0 0 0-.917.23c-.285.15-.532.365-.724.63a3.214 3.214 0 0 0-.684 2.064v7.494H0v-14.52ZM34.93 31.677l.484-4.361c.675.111 1.358.169 2.042.172.473.033.947-.043 1.388-.224.44-.18.837-.46 1.162-.82a6.48 6.48 0 0 0 .909-3.932 5.093 5.093 0 0 1-1.932 2.22 4.807 4.807 0 0 1-2.79.729 5.008 5.008 0 0 1-2.403-.492 5.222 5.222 0 0 1-1.918-1.584 9.005 9.005 0 0 1-1.546-5.59v-7.37h5.902v8.28c-.024.607.17 1.202.543 1.67.181.22.408.394.664.51.256.114.533.167.812.153.31.003.615-.075.889-.224.273-.15.508-.369.68-.636a3.796 3.796 0 0 0 .615-2.236v-7.469h5.973V21.53c0 3.423-.736 6.027-2.208 7.813a7.866 7.866 0 0 1-2.858 2.063 7.586 7.586 0 0 1-3.434.578c-.999.01-1.996-.093-2.974-.307ZM99.359 7.415a2.773 2.773 0 0 1-.688-.963 2.874 2.874 0 0 1-.233-1.175 2.77 2.77 0 0 1 .248-1.18c.168-.367.414-.691.72-.945a3.23 3.23 0 0 1 2.208-.86 3.183 3.183 0 0 1 2.266.872c.3.26.541.584.707.952a2.867 2.867 0 0 1 0 2.347 2.757 2.757 0 0 1-.707.952 3.265 3.265 0 0 1-2.243.86 3.148 3.148 0 0 1-2.278-.86Zm.578 16.498a6.55 6.55 0 0 1-1.334-4.337v-9.103h6.009v8.82a1.455 1.455 0 0 0 .354 1.045c.121.124.265.22.424.284.158.063.327.092.497.085a2.29 2.29 0 0 0 1.18-.357l.354 4.103a4.306 4.306 0 0 1-1.629.762c-.679.18-1.377.27-2.077.27a4.56 4.56 0 0 1-2.063-.352 4.72 4.72 0 0 1-1.715-1.245v.025ZM109.889 22.095l4.981-7.838h-4.793v-3.784h11.805v3.182l-4.722 7.813H122v3.772h-12.111v-3.145ZM88.782 10.473v8.342a2.18 2.18 0 0 1-.496 1.523 1.663 1.663 0 0 1-.576.411 1.608 1.608 0 0 1-.687.13 1.72 1.72 0 0 1-.715-.128 1.777 1.777 0 0 1-.607-.413 2.067 2.067 0 0 1-.41-.706 2.127 2.127 0 0 1-.11-.817v-4.128a4.876 4.876 0 0 1-.33.418l-5.288 5.503c.157.612.408 1.192.743 1.72a6.338 6.338 0 0 0 2.704 2.285c1.253.57 2.61.85 3.978.823a8.843 8.843 0 0 0 3.907-.823 6.337 6.337 0 0 0 2.644-2.31c.64-1.021.97-2.22.945-3.44v-8.39h-5.702Z"/><path fill="#65C15D" d="M82.432 10.236a1.69 1.69 0 0 0-1.229-.54c-.46 0-.903.194-1.229.54l-9.205 9.762-3.409-3.615a1.755 1.755 0 0 0-.564-.459 1.66 1.66 0 0 0-1.987.361 1.86 1.86 0 0 0-.388.633 1.946 1.946 0 0 0 .057 1.476c.105.228.253.431.436.596l5.866 6.222 11.652-12.37c.326-.346.509-.814.509-1.303s-.183-.957-.509-1.303Z"/></svg>
